!! 00000] TT[WS
!!!OTL: Xiu hebao
!!!ARE: Asia, China,ÿShanxi linxian
!! Ethnic Group: Han
!! WI, 114
!!!SCT: J0133
!!!YEM: Copyright 1995, estate of Helmut Schaffrath.
**kern
*ICvox
*Ivox
*M3/8
*k[f#]
*G:
{8f#
8a
8b
=1
8g
8f#
8e
=2
8dd
8ee
8gg
=3
4.d}
=4
{8dd
8dd
8ee
=5
8gg
8dd
8b
=6
8dd
8g
8b
=7
4.a}
=8
{8dd
8f#
8e
=9
8dd
8dd
8ee
=10
8f#
8a
8b
=11
4.g}
=12
{8a
8a
8b
=13
8dd
8f#
8e
=14
8g
8d
8e
=15
4.d}
==
!!!AGN: Xiaodiao. Qingge
!!!ONB: ESAC (Essen Associative Code) Database: CHINA
!!!AMT: simple triple
!!!AIN: vox
!!!EED: Helmut Schaffrath
!!!EEV: 1.0
*-
